src/assets/svg/msport.svg

<svg xmlns="http://www.w3.org/2000/svg" width="134" height="42" viewBox="0 0 134 42" fill="none">
<path fill-rule="evenodd" clip-rule="evenodd" d="M7.45943 16.215V13.74H10.5389V16.215V16.395V16.71C10.5389 20.985 8.70018 24.87 5.75527 27.69C4.12586 29.235 2.16757 30.45 0 31.245V28.05C1.33044 27.435 2.54129 26.595 3.57275 25.62C5.96455 23.325 7.45943 20.175 7.45943 16.71V16.395V16.215ZM0 33.405V36.48C3.52791 35.52 6.69704 33.705 9.22338 31.305C11.1219 29.49 12.6765 27.33 13.7529 24.945C14.4554 26.91 15.3823 28.755 16.5333 30.495C17.6545 28.995 18.5365 27.03 19.3437 24.96C20.42 27.345 21.9597 29.505 23.8582 31.32C26.3846 33.735 29.5537 35.55 33.0816 36.495V33.42C30.4058 32.55 27.999 31.11 26.0407 29.235C22.752 26.1 20.704 21.765 20.704 17.01V3.82501H17.6395V16.995C17.6395 19.32 17.2509 22.02 16.5483 24.12C15.8457 22.02 15.457 19.32 15.457 16.995V3.82501H12.3776V16.995C12.3776 21.75 10.3445 26.085 7.05581 29.22C5.08258 31.095 2.67583 32.55 0 33.405ZM0 38.385V41.4C5.02278 40.38 9.52236 37.965 13.0353 34.62C13.7828 33.9 14.4853 33.15 15.1431 32.34L15.0384 32.175L15.0086 32.22L15.0384 32.175C14.4853 31.32 13.9621 30.435 13.4987 29.535C12.7064 30.615 11.8245 31.62 10.8677 32.535C7.90789 35.355 4.1707 37.41 0 38.385ZM22.5278 16.215V13.74H25.6072V16.215V16.395V16.71C25.6072 20.175 27.0871 23.325 29.4939 25.62C30.5403 26.61 31.7512 27.45 33.0965 28.065V31.26C30.914 30.465 28.9557 29.25 27.3263 27.69C24.3665 24.87 22.5427 20.985 22.5427 16.71V16.395V16.215H22.5278ZM18.0431 32.445C18.1029 32.355 18.1627 32.265 18.2225 32.175L18.2524 32.22L18.2225 32.175C18.7457 31.365 19.239 30.525 19.7025 29.655C20.4648 30.675 21.3169 31.65 22.2437 32.535C25.1887 35.34 28.9258 37.41 33.0965 38.37V41.385C28.0738 40.365 23.5742 37.95 20.0612 34.605C19.3437 33.93 18.671 33.21 18.0431 32.445Z" fill="white"/>
<path fill-rule="evenodd" clip-rule="evenodd" d="M44.2188 15.135C44.8766 11.565 45.7586 7.575 46.1472 3.96H49.5705V20.67H47.3431V14.055L47.5973 8.085C47.2833 10.005 46.0276 17.085 44.4431 20.49V20.505H44.2039H43.9647V20.49C42.3801 17.1 41.1244 10.02 40.8105 8.085L41.0796 14.055V20.67H38.8672V3.96H42.2905C42.6941 7.56 43.5611 11.55 44.2188 15.135ZM133.119 20.67V3.96H130.279L127.663 13.725V3.96H125.391V20.67L127.693 20.7L130.817 9.045V20.67H133.119ZM132.058 0H126.452V1.965H132.058V0ZM95.807 6.87V7.56V8.91C95.807 10.245 95.2539 11.22 94.3869 11.835C95.3286 12.585 95.807 13.74 95.807 15.165V20.64C94.2523 20.64 92.7126 20.64 91.1579 20.64H88.6166V3.93H91.1579C92.7126 3.93 94.2523 3.93 95.807 3.93V6.87ZM91.1579 13.2V18.255H93.2508V15C93.2508 13.305 92.0997 13.14 91.1579 13.2ZM91.1579 6.315V10.8C92.0997 10.845 93.2508 10.8 93.2508 9.09V7.575V6.315H91.1579ZM81.8 20.64H79.2587V3.93H81.8H84.2217H86.8078V20.64H84.2217H81.8ZM84.2217 6.315H81.8449V18.255H84.2217V6.315ZM53.9355 20.64H51.3942V3.93H53.9355H56.3572H58.9434V20.64H56.3572H53.9355ZM56.3572 6.315H53.9804V18.255H56.3572V6.315ZM100.037 20.64H97.4962V3.93H100.037H102.459H105.06V10.635H102.459V6.315H100.037V18.255H102.459V13.935H105.06V20.64H102.459H100.037ZM63.2935 20.64H60.7522V3.93H63.2935H65.7152H68.3013V10.635H65.7152V6.315H63.2935V18.255H65.7152V13.935H68.3013V20.64H65.7152H63.2935ZM109.395 20.67H106.854V3.96H109.395V10.515H109.814C111.189 10.515 111.638 9.015 111.638 7.89V3.96H114.179V7.785C114.179 9.54 113.536 10.86 112.266 11.73C113.641 12.69 114.179 13.905 114.179 15.675V20.685H111.638V15.57C111.638 14.49 111.129 13.185 109.829 13.185H109.38V20.67H109.395ZM115.868 20.67V3.96H118.14V13.725L120.756 3.96H123.597V20.67H121.31V9.045L118.17 20.7L115.868 20.67ZM72.6514 20.67H70.1101V3.96H72.6514V10.515H73.0699C74.4452 10.515 74.8937 9.015 74.8937 7.89V3.96H77.435V7.785C77.435 9.54 76.7922 10.86 75.5215 11.73C76.8819 12.69 77.435 13.905 77.435 15.675V20.685H74.8937V15.57C74.8937 14.49 74.3854 13.185 73.0849 13.185H72.6364V20.67H72.6514Z" fill="white"/>
<path fill-rule="evenodd" clip-rule="evenodd" d="M51.1841 42H48.6428V25.29H56.2069V42H53.6207V27.675H51.199V42H51.1841ZM41.8411 42H39.2998V25.29H41.8411H44.2628H46.8489V31.995H44.2628V27.675H41.8411V39.615H44.2628V35.295H46.8489V42H44.2628H41.8411ZM60.542 42H58.0007V25.29H60.542H62.9637H65.5648V42H62.9637H60.542ZM62.9487 27.675H60.5719V39.615H62.9487V27.675ZM75.1619 25.29H83.0249V27.675H80.364V42H77.8228V27.675H75.1619V25.29ZM74.4742 31.095V31.8V33.15C74.4742 35.715 73.1438 37.515 70.6772 37.515H69.8252V42H67.2839V25.29C69.6757 25.305 72.0824 25.29 74.4742 25.29V31.095ZM69.8252 27.675V35.115C70.7819 35.175 71.918 35.01 71.918 33.3V31.785V27.675H69.8252Z" fill="white"/>
</svg>

<svg xmlns="http://www.w3.org/2000/svg" width="134" height="42" fill="none"><path fill-rule="evenodd" clip-rule="evenodd" d="M7.46 16.215V13.74h3.079v2.97c0 4.275-1.839 8.16-4.784 10.98A16.736 16.736 0 010 31.245V28.05a13.446 13.446 0 003.573-2.43c2.392-2.295 3.886-5.445 3.886-8.91v-.495zM0 33.405v3.075a21.68 21.68 0 009.223-5.175 20.503 20.503 0 004.53-6.36 25.692 25.692 0 002.78 5.55c1.121-1.5 2.003-3.465 2.81-5.535a20.456 20.456 0 004.515 6.36 21.37 21.37 0 009.224 5.175V33.42a18.403 18.403 0 01-7.041-4.185c-3.289-3.135-5.337-7.47-5.337-12.225V3.825H17.64v13.17c0 2.325-.39 5.025-1.092 7.125-.702-2.1-1.091-4.8-1.091-7.125V3.825h-3.08v13.17c0 4.755-2.033 9.09-5.321 12.225A18.384 18.384 0 010 33.405zm0 4.98V41.4a26.592 26.592 0 0013.035-6.78c.748-.72 1.45-1.47 2.108-2.28l-.105-.165-.03.045.03-.045a31.105 31.105 0 01-1.54-2.64 22.874 22.874 0 01-2.63 3A23.505 23.505 0 010 38.385zm22.528-22.17V13.74h3.08v2.97c0 3.465 1.48 6.615 3.886 8.91 1.046.99 2.257 1.83 3.602 2.445v3.195a16.475 16.475 0 01-5.77-3.57c-2.96-2.82-4.783-6.705-4.783-10.98v-.495h-.015zm-4.485 16.23l.18-.27.03.045-.03-.045a34.79 34.79 0 001.48-2.52 23.162 23.162 0 002.54 2.88 23.358 23.358 0 0010.854 5.835v3.015a26.593 26.593 0 01-13.036-6.78 22.975 22.975 0 01-2.018-2.16zM44.219 15.135c.658-3.57 1.54-7.56 1.928-11.175h3.424v16.71h-2.228v-6.615l.254-5.97c-.314 1.92-1.57 9-3.154 12.405v.015h-.478v-.015c-1.585-3.39-2.84-10.47-3.155-12.405l.27 5.97v6.615h-2.213V3.96h3.424c.403 3.6 1.27 7.59 1.928 11.175zm88.9 5.535V3.96h-2.84l-2.616 9.765V3.96h-2.272v16.71l2.302.03 3.124-11.655V20.67h2.302zM132.058 0h-5.606v1.965h5.606V0zM95.807 6.87v2.04c0 1.335-.553 2.31-1.42 2.925.942.75 1.42 1.905 1.42 3.33v5.475h-7.19V3.93h7.19v2.94zm-4.65 6.33v5.055h2.094V15c0-1.695-1.151-1.86-2.093-1.8zm0-6.885V10.8c.943.045 2.094 0 2.094-1.71V6.315h-2.093zM81.8 20.64h-2.541V3.93H86.808v16.71H81.8zm2.422-14.325h-2.377v11.94h2.377V6.315zM53.936 20.64h-2.542V3.93H58.943v16.71h-5.008zm2.421-14.325H53.98v11.94h2.377V6.315zm43.68 14.325h-2.54V3.93h7.563v6.705h-2.601v-4.32h-2.422v11.94h2.422v-4.32h2.601v6.705h-5.023zm-36.744 0h-2.54V3.93H68.3v6.705h-2.586v-4.32h-2.422v11.94h2.422v-4.32h2.586v6.705h-5.008zm46.102.03h-2.541V3.96h2.541v6.555h.419c1.375 0 1.824-1.5 1.824-2.625V3.96h2.541v3.825c0 1.755-.643 3.075-1.913 3.945 1.375.96 1.913 2.175 1.913 3.945v5.01h-2.541V15.57c0-1.08-.509-2.385-1.809-2.385h-.449v7.485h.015zm6.473 0V3.96h2.272v9.765l2.616-9.765h2.841v16.71h-2.287V9.045L118.17 20.7l-2.302-.03zm-43.217 0h-2.54V3.96h2.54v6.555h.419c1.375 0 1.824-1.5 1.824-2.625V3.96h2.541v3.825c0 1.755-.643 3.075-1.913 3.945 1.36.96 1.913 2.175 1.913 3.945v5.01h-2.541V15.57c0-1.08-.509-2.385-1.81-2.385h-.448v7.485h.015zM51.184 42h-2.541V25.29h7.564V42H53.62V27.675h-2.422V42h-.015zm-9.343 0H39.3V25.29H46.849v6.705h-2.586v-4.32H41.84v11.94h2.422v-4.32h2.586V42H41.84zm18.701 0h-2.541V25.29H65.564V42h-5.022zm2.407-14.325h-2.377v11.94h2.377v-11.94zm12.213-2.385h7.863v2.385h-2.661V42h-2.541V27.675h-2.661V25.29zm-.688 5.805v2.055c0 2.565-1.33 4.365-3.797 4.365h-.852V42h-2.541V25.29c2.392.015 4.798 0 7.19 0v5.805zm-4.649-3.42v7.44c.957.06 2.093-.105 2.093-1.815v-5.625h-2.093z" fill="#fff"/></svg>
